X:1
T:A minor Jeremiah Ingalls, 1805 Arranged by Alexander Johnson, 1818
T:Anonymous author, before 1800
T:Captain Kidd
T:Transcribed from Moore's Columbian Harmony, 1825
%%score [ 1 2 3 4 ]
L:1/8
Q:1/4=120
M:4/4
K:C
V:1 treble nm="Tr." snm="Tr."
V:2 treble nm="C." snm="C."
V:3 treble-8 nm="T." snm="T."
V:4 bass nm="B." snm="B."
V:1
"^1. Through all this world below,  God  is seen  all  around, Search hills and valleys through, There he’s found.          The  growing  of  the   corn,    The    li – ly    and       the\n2.  See  spring–ing  wa–ters rise,  Fountains flow, rivers run;  The  mist  the veils  the  sky,  Hides  the   sun:         Then down the rain doth pour,   The   o– cean   it       doth" A4 | %1
 E2 A2 G2 A2 | B4 A2 A2 | e4 d2 c2 | B4 G4 | E2 A2 G2 A2 | B4 E2 G2 | A8 | z4 A4 | A2 e2 c2 d2 | %10
 B6 E2 | G2 B2 d2 cd | %12
"^1. thorn, The  pleasant  and  for lorn,  All  declare God is  there;  In  meadows  dressed in green, There he's seen.\n2. roar,   And  beat upon  the shore,  And all praise, in their ways,  The God that ne’er  de clines  His  de –signs." e4 g4 | %13
 e2 e2 c2 d2 | B4 B2 c2 | d4 d2 f2 | e4 g4 | e2 e2 c2 d2 | B4 E2 G2 | A8 |] %20
V:2
"^3.  The   sun  with  all   his   rays,  Speaks  of  God as he flies;   The  co – met   in    its    blaze,   God  it   cries.       The  shining  of  the   stars,     The     moon  when  she  ap –\n4. Then  let  my  sta –  tion   be,   Here  in  life,  where  I   see  The   sa – cred   tri – ni  –  ty    All       a   –   gree;    In  all the works he’s made,    The      fo  –  rest    and      the" E4 | %1
 E2 E2 G2 A2 | E4 E2 A2 | A4 G2 A2 | E4 E4 | E2 A2 G2 A2 | G4 E2 E2 | E8 | z4 E4 | E2 E2 A2 G2 | %10
 E6 E2 | G2 G2 A2 GA | %12
"^3.–pears,  His awful name declares:  See  them fly through the sky,  And   join  the  solemn  sound   All  a–round.\n4. glade.   Nor  let  me  be  a – fraid,  Though I  dwell  in  the  hill,    Where nature’s works declare    God is  there." B4 G4 | %13
 A2 E2 G2 D2 | E4 E2 G2 | A4 G2 A2 | E4 G4 | A2 E2 G2 D2 | E4 E2 G2 | A8 |] %20
V:3
"^5. God  did  to  Mo– ses  show,  Glo–ries  more  than  Peru;   His       face  a–lone  withdrew    From  the  view.       Mount Sinai was the place,    Where God did show  his\n6. E–li – jah’s  ser–vant  views    From the hill and declares,    A          lit–tle  cloud  ap–pears,   Dry  your   tears:       Our Lord trans–fi–gured is,   With those blest saints of" A4 | %1
 c2 A2 B2 A2 | G4 E2 E2 | A4 G2 A2 | B4 (c3 d) | e2 B2 c2 A2 | G4 B2 c2 | A8 | z4 A4 | %9
 c2 A2 c2 d2 | e6 c2 | d2 d2 ed c2 | %12
"^5. grace; And   Moses  sang his praise, See him rise near the skies: And view old Canaan's ground   All  a–round.\n6.  his,     As  faith the wit –nes – ses:  See them shine all  di–vine.While  Olive’s  Mount  is  blest  With the rest.\n" B4 c4 | %13
 e2 B2 c2 A2 | G4 B2 c2 | A4 G2 A2 | B4 (c3 d) | e2 B2 c2 A2 | G4 B2 c2 | A8 |] %20
V:4
"^7. Not   In–dia's  hills of gold,   Where the wonders are told.  Nor  zephyrs  strong and bold,  Can un – fold              The  mountain  Cal –va –ry,  Where Christ our Lord did\n8  And  now from Cal–va–ry,    We may stand and  e – spy,     Be – yond  this  lo–wer   sky,    Far  on   high,              Mount   Zion’s   spicy  hill,   Where saints  and an – gels\n9. The hills are honored thus,     By our Lord  in his course,     Let  them   not   be   by   us      Called  a  curse;             For – bid  it,  mighty King,   But     ra – ther    let      us" A,4 | %1
 E,2 A,,2 E,2 F,2 | E,4 A,,2 A,,2 | A,4 B,2 A,2 | E,4 E,4 | A,2 E,2 C,2 D,2 | E,4 E,2 E,2 | A,,8 | %8
 z4 A,,4 | A,2 A,2 A,2 G,2 | E,6 E,2 | G,2 G,2 A,2 G,2 | %12
"^7. die; Hark! hear the Savior cry, Mountains quake, heavens shake, Christ called to heaven's host, Left their coast.\n8  dwell; Hark! hear them sing and tell  Of their Lord, with accord,  And join in Mo–ses’ song,  Heart and tongue.\n9. sing, While hills and valleys  ring;  Echoes  fly through the sky, And hea–ven hears the sound  From the  ground.\n" E,4 (C,3 B,,) | %13
 A,,2 E,2 C,2 D,2 | E,4 E,2 C,2 | D,4 G,2 F,2 | E,4 (C,3 B,,) | A,,2 E,2 C,2 D,2 | E,4 E,2 E,2 | %19
 A,,8 |] %20

